X: 0803
T: Calver Lodge
P: Country Dance
C:Nath. Gow's Dances for 1812
R:Reel (8x24)
B:RSCDS 8-3
Z:Anselm Lingnau <anselm@strathspey.org>
M:C|
L:1/8
K:D
|:A2|"D"d3c edcB|A^GAB ABAF|"D"DBAF DBAF|"A"G2E2E2 A2|
     "D"d3c edcB|A^GAB ABAF|"G"DBAF "A7"AGEF|"D"D2d2d2:|
  f2|"A"efgf edce|"D"defg a2 fa|"A"ageg "D"gfdf|"A"edef e3 f|
     "A"efgf edce|"D"defg a2 fa|"A"ageg "D"gfdf|"A7"edcB A2|]
%%center Book08/0803-Calver_Lodge-AL.abc

%%sep 1 1 500
%%sep 1 1 500

